icons/circle/48/libreoffice-draw.svg

<svg xmlns="http://www.w3.org/2000/svg" viewBox="0 0 48 48">
 <defs>
  <linearGradient id="linearGradient3764" x1="1" x2="47" gradientUnits="userSpaceOnUse" gradientTransform="matrix(0,-1,1,0,-1.5e-6,47.999998)">
   <stop style="stop-color:#b0e648;stop-opacity:1"/>
   <stop offset="1" style="stop-color:#b9e85a;stop-opacity:1"/>
  </linearGradient>
 </defs>
 <g>
  <path d="m 36.31 5 c 5.859 4.062 9.688 10.831 9.688 18.5 c 0 12.426 -10.07 22.5 -22.5 22.5 c -7.669 0 -14.438 -3.828 -18.5 -9.688 c 1.037 1.822 2.306 3.499 3.781 4.969 c 4.085 3.712 9.514 5.969 15.469 5.969 c 12.703 0 23 -10.298 23 -23 c 0 -5.954 -2.256 -11.384 -5.969 -15.469 c -1.469 -1.475 -3.147 -2.744 -4.969 -3.781 z m 4.969 3.781 c 3.854 4.113 6.219 9.637 6.219 15.719 c 0 12.703 -10.297 23 -23 23 c -6.081 0 -11.606 -2.364 -15.719 -6.219 c 4.16 4.144 9.883 6.719 16.219 6.719 c 12.703 0 23 -10.298 23 -23 c 0 -6.335 -2.575 -12.06 -6.719 -16.219 z" style="opacity:0.05"/>
  <path d="m 41.28 8.781 c 3.712 4.085 5.969 9.514 5.969 15.469 c 0 12.703 -10.297 23 -23 23 c -5.954 0 -11.384 -2.256 -15.469 -5.969 c 4.113 3.854 9.637 6.219 15.719 6.219 c 12.703 0 23 -10.298 23 -23 c 0 -6.081 -2.364 -11.606 -6.219 -15.719 z" style="opacity:0.1"/>
  <path d="m 31.25 2.375 c 8.615 3.154 14.75 11.417 14.75 21.13 c 0 12.426 -10.07 22.5 -22.5 22.5 c -9.708 0 -17.971 -6.135 -21.12 -14.75 a 23 23 0 0 0 44.875 -7 a 23 23 0 0 0 -16 -21.875 z" style="opacity:0.2"/>
 </g>
 <g>
  <path d="m 24 1 c 12.703 0 23 10.297 23 23 c 0 12.703 -10.297 23 -23 23 -12.703 0 -23 -10.297 -23 -23 0 -12.703 10.297 -23 23 -23 z" style="fill:url(#linearGradient3764);fill-opacity:1"/>
 </g>
 <g>
  <g>
   <g transform="translate(1,1)">
    <g style="opacity:0.1">
     <!-- color: #b9e85a -->
     <g>
      <path d="m 25 10 c -0.551 0 -1 0.449 -1 1 0.046 1.014 0.02 2.07 0.02 3.098 c -2.292 0.456 -4.02 2.476 -4.02 4.902 c 0 0.575 0.116 1.119 0.295 1.633 l -6.295 19.367 8.762 -16.551 c 0.676 0.341 1.429 0.551 2.238 0.551 c 0.808 0 1.562 -0.21 2.238 -0.551 l 8.762 16.551 -6.293 -19.373 c 0.177 -0.512 0.293 -1.054 0.293 -1.627 0 -2.412 -1.711 -4.423 -3.98 -4.895 0 -1.169 0.012 -1.938 -0.02 -3.105 0 -0.551 -0.449 -1 -1 -1 m 0 6 c 1.656 0 3 1.34 3 3 0 1.66 -1.344 3 -3 3 -1.66 0 -3 -1.34 -3 -3 0 -1.66 1.344 -3 3 -3 z" transform="translate(-1,-1)"/>
     </g>
    </g>
   </g>
  </g>
 </g>
 <g>
  <g>
   <!-- color: #b9e85a -->
   <g>
    <path d="m 25.02 10 0 3.227 c 0 0.98 -0.445 1.773 -1 1.773 -0.551 0 -1 -0.793 -1 -1.773 l 0 -3.227 m 2 0" style="fill:#be3d27;fill-opacity:1;stroke:none;fill-rule:nonzero"/>
    <path d="m 25 10 c 0 0.551 -0.449 1 -1 1 -0.551 0 -1 -0.449 -1 -1 0 -0.551 0.449 -1 1 -1 0.551 0 1 0.449 1 1 m 0 0" style="fill:#be3d27;fill-opacity:1;stroke:none;fill-rule:nonzero"/>
    <path d="M 22,22 13,39 19.5,19.004 M 22,22" style="fill:#ebecf1;fill-opacity:1;stroke:none;fill-rule:nonzero"/>
    <path d="M 26,22 35,39 28.504,19.004 M 26,22" style="fill:#ebecf1;fill-opacity:1;stroke:none;fill-rule:nonzero"/>
    <path d="m 24 13 c -2.762 0 -5 2.238 -5 5 0 2.762 2.238 5 5 5 2.758 0 5 -2.238 5 -5 0 -2.762 -2.242 -5 -5 -5 m 0 2 c 1.656 0 3 1.34 3 3 0 1.66 -1.344 3 -3 3 -1.66 0 -3 -1.34 -3 -3 0 -1.66 1.344 -3 3 -3 m 0 0" style="fill:#be3d27;fill-opacity:1;stroke:none;fill-rule:nonzero"/>
   </g>
  </g>
 </g>
 <g>
  <path d="m 40.03 7.531 c 3.712 4.084 5.969 9.514 5.969 15.469 0 12.703 -10.297 23 -23 23 c -5.954 0 -11.384 -2.256 -15.469 -5.969 4.178 4.291 10.01 6.969 16.469 6.969 c 12.703 0 23 -10.298 23 -23 0 -6.462 -2.677 -12.291 -6.969 -16.469 z" style="opacity:0.1"/>
 </g>
</svg>

<svg xmlns="http://www.w3.org/2000/svg" viewBox="0 0 48 48">
  <defs>
    <linearGradient id="a" x1="1" x2="47" gradientUnits="userSpaceOnUse" gradientTransform="rotate(-90 24 24)">
      <stop stop-color="#b0e648"/>
      <stop offset="1" stop-color="#b9e85a"/>
    </linearGradient>
  </defs>
  <path d="M36.31 5c5.859 4.062 9.688 10.831 9.688 18.5 0 12.426-10.07 22.5-22.5 22.5-7.669 0-14.438-3.828-18.5-9.688a23.24 23.24 0 0 0 3.781 4.969 22.923 22.923 0 0 0 15.469 5.969c12.703 0 23-10.298 23-23a22.92 22.92 0 0 0-5.969-15.469A23.216 23.216 0 0 0 36.31 5zm4.969 3.781A22.911 22.911 0 0 1 47.498 24.5c0 12.703-10.297 23-23 23a22.909 22.909 0 0 1-15.719-6.219C12.939 45.425 18.662 48 24.998 48c12.703 0 23-10.298 23-23 0-6.335-2.575-12.06-6.719-16.219z" opacity=".05"/>
  <path d="M41.28 8.781a22.923 22.923 0 0 1 5.969 15.469c0 12.703-10.297 23-23 23A22.92 22.92 0 0 1 8.78 41.281 22.911 22.911 0 0 0 24.499 47.5c12.703 0 23-10.298 23-23A22.909 22.909 0 0 0 41.28 8.781z" opacity=".1"/>
  <path d="M31.25 2.375C39.865 5.529 46 13.792 46 23.505c0 12.426-10.07 22.5-22.5 22.5-9.708 0-17.971-6.135-21.12-14.75a23 23 0 0 0 44.875-7 23 23 0 0 0-16-21.875z" opacity=".2"/>
  <path d="M24 1c12.703 0 23 10.297 23 23S36.703 47 24 47 1 36.703 1 24 11.297 1 24 1z" fill="url(#a)"/>
  <path d="M25 10c-.551 0-1 .449-1 1 .046 1.014.02 2.07.02 3.098A5 5 0 0 0 20 19c0 .575.116 1.119.295 1.633L14 40l8.762-16.551A4.946 4.946 0 0 0 25 24a4.95 4.95 0 0 0 2.238-.551L36 40l-6.293-19.373A4.958 4.958 0 0 0 30 19a5.005 5.005 0 0 0-3.98-4.895c0-1.169.012-1.938-.02-3.105 0-.551-.449-1-1-1m0 6c1.656 0 3 1.34 3 3s-1.344 3-3 3c-1.66 0-3-1.34-3-3s1.344-3 3-3z" opacity=".1"/>
  <g>
    <path d="M25.02 10v3.227c0 .98-.445 1.773-1 1.773-.551 0-1-.793-1-1.773V10m2 0" fill="#be3d27"/>
    <path d="M25 10c0 .551-.449 1-1 1-.551 0-1-.449-1-1 0-.551.449-1 1-1 .551 0 1 .449 1 1m0 0" fill="#be3d27"/>
    <path d="M22 22l-9 17 6.5-19.996M26 22l9 17-6.496-19.996M26 22" fill="#ebecf1"/>
    <path d="M24 13a5 5 0 0 0-5 5 5 5 0 1 0 10 0c0-2.762-2.242-5-5-5m0 2c1.656 0 3 1.34 3 3s-1.344 3-3 3c-1.66 0-3-1.34-3-3s1.344-3 3-3m0 0" fill="#be3d27"/>
  </g>
  <g>
    <path d="M40.03 7.531A22.922 22.922 0 0 1 45.999 23c0 12.703-10.297 23-23 23A22.92 22.92 0 0 1 7.53 40.031C11.708 44.322 17.54 47 23.999 47c12.703 0 23-10.298 23-23 0-6.462-2.677-12.291-6.969-16.469z" opacity=".1"/>
  </g>
</svg>
